web/public/background-2.svg

<svg style="object-fit:cover" id="my-svg" version="1" baseProfile="full" width="100%" height="100%" viewBox="0 0 1792 843" xmlns="http://www.w3.org/2000/svg"><rect width="1792" height="843" fill="#ffffff"/><path transform="scale(1, 1)" d="M 0,843 V 0,590 C 318.66666666666663,654.5 637.3333333333333,719 936,719 C 1234.6666666666667,719 1513.3333333333335,654.5 1792,590 C 1792,590 1792,843 1792,843 Z" stroke="none" stroke-width="0" fill="#f5df4d90" class="transition-all duration-300 ease-in-out delay-150" style="transform-origin: center center;"/><path transform="scale(1, 1)" d="M 0,843 V 0,885 C 333.66666666666663,825 667.3333333333333,765 966,765 C 1264.6666666666667,765 1528.3333333333335,825 1792,885 C 1792,885 1792,843 1792,843 Z" stroke="none" stroke-width="0" fill="#f5df4dff" class="transition-all duration-300 ease-in-out delay-150" style="transform-origin: center center;"/></svg>

<svg style="object-fit:cover" version="1" baseProfile="full" viewBox="0 0 1792 843" xmlns="http://www.w3.org/2000/svg"><path fill="#fff" d="M0 0H1792V843H0z"/><path d="M0 843V0v590c318.667 64.5 637.333 129 936 129 298.667 0 577.333-64.5 856-129v253z" fill="#f5df4d90" class="transition-all duration-300 ease-in-out delay-150" style="transform-origin:center center"/><path d="M0 843V0v885c333.667-60 667.333-120 966-120 298.667 0 562.333 60 826 120v-42z" fill="#f5df4dff" class="transition-all duration-300 ease-in-out delay-150" style="transform-origin:center center"/></svg>
